!!!OTL: 145. Schaeferin und der Kuckuk.
!!!ARE: Europa, Mitteleuropa, Deutschland, Rheinland, Nassau
!!!SCT: B0145
!!!TXL: @@DE
!!!YEM: Copyright 1995, estate of Helmut Schaffrath.
**kern	**text
*ICvox	*
*Ivox	*
*M6/8	*
*clefG2	*
*k[f#]	*
*G:	*
!LO:TX:a:t=Scherʒhaft.	!
{8d	Ein
=1	=1
4g	Schä-
8g	-fer-
8aq	.
8gL	-mäd-
8f#J	.
8g	-chen
=2	=2
4a	wei-
8a	-de-
4a}	-te
{8a	ʒwei
=3	=3
4b	Läm-
8b	-mer
8ddL	an
8ccJ	.
8a	der
=4	=4
4g	Hand
8r	.
4r}	.
{8d	Auf
=5	=5
4g	ei-
8g	-ner
8aq	.
8gL	Flur,
8f#J	.
8g	wo
=6	=6
4a	ſet-
8a	-ter
4a}	Klee
{8a	und
=7	=7
4b	Gän-
8b	-ſe-
8ddL	-blüm-
8ccJ	.
8a	-chen
=8	=8
4g	ſtand
8r	.
4r}	.
{8dd	da
=9	=9
4cc#	hör-
8a	-te
8aL	ſie
8bJ	.
8cc#	wohl
=10	=10
4dd	in
8a	dem
4ff#}	Hain
{8dd	den
=11	=11
4cc#	Vo-
8a	-gel
8aL	Kuk-
8bJ	.
8cc#	-kuk
=12	=12
8eeL	lu-
8ddJ	.
8dd	-ſtig
4dd;}	ſchrei'n:
{8dd	Kuk-
=13	=13
4b	-kuk!
8r	.
4r	.
8dd	Kuk-
=14	=14
4cc	-kuk!
8r	.
4r}	.
{8dd	Kuk-
=15	=15
4b	-kuk!
8dd	Kuk-
4b	-kuk!
8dd	Kuk-
=16	=16
4b	-kuk!
8r	.
4r}	.
==	==
!!!AGN: Ballade, Romanze
!!!GTL: Balladen und Romanzen
!!!ONB: ESAC (Essen Associative Code) Database: BOEHME
!!!AMT: compound duple
!!!AIN: vox
!!!EED: Helmut Schaffrath
!!!EEV: 1.0
!!Alte Mel. (Volksmel. geworden. )
!!@@COMMENT:"Gedicht nicht von Gleim, dem es ohne Grund Fink (Hausſchatʒ Rr. 17) ʒuſchreibt, ſondern
!!der Verfaſſer iſt unbekannt. Das Lied ſtammt aus dem Anfange unſers Jahrhunderts. Der Text
!!überall etwas abweichend (nach Volksliederart). Hier die kürʒere und verbreitetſte Lesart nach Fink,
!!Härtel (Liederlexikon) und in vielen handſchriftlichen Liederbeften vom Rhein, aus dem Elſaß und
!!dem Naſſauiſchen."
!!@@END:
!!!URL-scan: https://archive.org/details/BoehmeVtLieder1895/page/n147/mode/2up
!!!ENC: Anna Maria Matuszewska
!!!EEV: 2024/19/06
*-	*-
